X: 0
T: O What Mean These Songs They're Singing
Z: Gibson / Old
Z: Copyright © 2004 by Douglas D. Anderson
Z: Released To The Public Domain
L: 1/4
M: 4/4
Q: 1/4=110
V: P1 name="Staff"
%%MIDI program 1 19
K: G
[V: P1]  B3/ B/ d B | B3/ A/ A G | G2 A3/ G/ | B3z | B3/ B/ d B | B3/ A/ A G | (F A) B3/ ^c/ | d3z | A B A F | G c B A | B B c B | c e e d | B3/ B/ d B | B3/ A/ A G | G2 F3/ F/ | G4|]
w: O what mean these songs they're sing- ing? 'Tis Christ- mas Day! O what mean these bells they're ring- ing? 'Tis_ Christ- mas Day! O what mean these or- gans peal- ing, What this news that they're re- veal ing, Tens of thou- sands low- ly kneel- ing? 'Tis Christ- mas Day!

